X:1
T:The Fisherman's Island
R:Reel
C:Ed Reavy
M:2/2
L:1/8
K:D
%%printtempo 0
Q:160
(DE)FA d2 (cd)|BAGB A(FDF)|GEED EFGA|((3Bcd) ed cAAg|
fd ~d2 e(cAc)|~d3 A BAGF|EFGA ((3Bcd) ed|1 cAGE EDCE:|2 cAGE EDD2|
|:(fd) ~d2 (AF) ~F2| (DF)Ad f2(ef)|gece bece| dfed cAGE|
(DF) ~F2 Adfd|Bg ~g2 edcB | (Ad)fa (gb)ed |1 cAGE (ED)D2:|2cAGE EDCE|]
